la/taxi-solid.svg

<svg xmlns="http://www.w3.org/2000/svg" viewBox="0 0 32 32" height="1em" width="1em">
  <path d="M 13 4 L 12.34375 6 L 9.5 6 C 8.179688 6 7.003906 6.859375 6.625 8.125 L 5.25 12.71875 L 3.3125 12.0625 L 2.6875 13.9375 L 4.65625 14.59375 L 4.03125 16.71875 C 4.007813 16.808594 3.996094 16.90625 4 17 L 4 24 C 4 24.03125 4 24.0625 4 24.09375 L 4 25 C 4 25.550781 4.449219 26 5 26 L 8 26 L 8.34375 25 L 23.65625 25 L 24 26 L 27 26 C 27.550781 26 28 25.550781 28 25 L 28 24.15625 C 28.003906 24.105469 28.003906 24.050781 28 24 L 28 17 C 28.003906 16.90625 27.992188 16.808594 27.96875 16.71875 L 27.34375 14.59375 L 29.3125 13.9375 L 28.6875 12.0625 L 26.75 12.71875 L 25.375 8.125 C 24.996094 6.859375 23.820313 6 22.5 6 L 19.65625 6 L 19 4 Z M 9.5 8 L 22.5 8 C 22.945313 8 23.339844 8.292969 23.46875 8.71875 L 24.75 13 L 7.25 13 L 8.53125 8.71875 C 8.660156 8.289063 9.054688 8 9.5 8 Z M 6.65625 15 L 25.34375 15 L 26 17.1875 L 26 23 L 6 23 L 6 17.1875 Z M 8.5 16 C 7.671875 16 7 16.671875 7 17.5 C 7 18.328125 7.671875 19 8.5 19 C 9.328125 19 10 18.328125 10 17.5 C 10 16.671875 9.328125 16 8.5 16 Z M 23.5 16 C 22.671875 16 22 16.671875 22 17.5 C 22 18.328125 22.671875 19 23.5 19 C 24.328125 19 25 18.328125 25 17.5 C 25 16.671875 24.328125 16 23.5 16 Z M 12 19 L 10.75 22 L 12.90625 22 L 13.34375 21 L 18.65625 21 L 19.09375 22 L 21.25 22 L 20 19 Z"/>
</svg>

<svg xmlns="http://www.w3.org/2000/svg" viewBox="0 0 32 32" height="1em" width="1em">
  <path d="m13 4-.656 2H9.5c-1.32 0-2.496.86-2.875 2.125L5.25 12.719l-1.938-.656-.624 1.874 1.968.657-.625 2.125A.972.972 0 0 0 4 17v8c0 .55.45 1 1 1h3l.344-1h15.312L24 26h3c.55 0 1-.45 1-1v-.844c.004-.05.004-.105 0-.156v-7a.972.972 0 0 0-.031-.281l-.625-2.125 1.968-.656-.625-1.876-1.937.657-1.375-4.594A2.997 2.997 0 0 0 22.5 6h-2.844L19 4ZM9.5 8h13c.445 0 .84.293.969.719L24.75 13H7.25l1.281-4.281c.13-.43.524-.719.969-.719Zm-2.844 7h18.688L26 17.188V23H6v-5.813ZM8.5 16a1.5 1.5 0 1 0 0 3 1.5 1.5 0 0 0 0-3Zm15 0a1.5 1.5 0 1 0 0 3 1.5 1.5 0 0 0 0-3ZM12 19l-1.25 3h2.156l.438-1h5.312l.438 1h2.156L20 19Z"/>
</svg>
